X: 13320
T: Flanagan Meets O'Hanlon
R: barndance
M: 4/4
K: Cmajor
(3GAB|:c2cd cAGE|CDCA, C3A,|G,A,CD EAGE|DCDE D2 (3GAB|
cded cAGE|CDCA, C3A,|G,A,CD EAGE|DCDE C4:|
G,3A, CDEF|G2cd edcB|A2EG ABcA|(3GAG cA GFED|
C2G,A, CDEF|G2cd edce|d3e ^fdef|gaba (3gag (3=fed|
c2cd cAGE|CDCA, C3A,|G,A,CD EDEG|A4 A3B|
cdcA GEGA|cdcA GECA,|G,A,CD EAGE|DCDE C2||

